X: 6620
T: Cave Of The Cats, The
R: reel
M: 4/4
K: Dmixolydian
|:A,DFA dged|dcAB cAGE|CE ~E2 GE ~E2|c3 d cAGE|
D2 FA dged|dcAB cdeg|fage dcAG|1 ~E2 CD EDDC:|2 ~E2 CD ED D2||
Aded aded|dcAB cAGE|cE ~E2 GE ~E2|c3 d cAGE|
[1 Aded aded|dcAB cdeg|fage dcAG|~E2 CD ED D2:|
[2 A,CDE =F3 D|EGcd ecdB|cedB cBAG|~E2 CD EDDC||

